X:273
T:Bonaparte Crossing the Rhine
M:4/4
L:1/8
R:Reel
K:D
F2G2|:A3B A2F2|A4 d2e2|f3g f2e2|d4 d2c2|
|B3c d2B2|A2F2D2F2|E3FG2F2|E4F2G2|
|A3BA2F2|A4d2e2|f3gf2e2|d4d2c2|
|B3cd2B2|A2F2E2F2|D3EF2E2|1 D4F2G2:|2 D4d2e2|
|:f3ef2g2|a4D3D|B2A2B2c2|d4A3A|
|B2A2 B2c2|d2B2A2F2|E3FG2F2|E4F2G2|
|A3BA2F2|A4d2e2|f3gf2e2|d4d2c2|
|B3cd2B2|A2F2E2F2|D3EF2E2|1 D4d2e2:|2 D4 F2G2|
